; G-Code generated by Simplify3D(R) Version 4.1.2
; Apr 25, 2022 at 12:09:10 PM
; Settings Summary
;   processName,Process1
;   applyToModels,Box Cover
;   profileName,Voron 300 (modified)
;   profileVersion,2022-04-25 10:48:36
;   baseProfile,Default
;   printMaterial,PLA
;   printQuality,Medium
;   printExtruders,
;   extruderName,Extruder 1
;   extruderToolheadNumber,0
;   extruderDiameter,0.4
;   extruderAutoWidth,1
;   extruderWidth,0.48
;   extrusionMultiplier,1
;   extruderUseRetract,1
;   extruderRetractionDistance,0.75
;   extruderExtraRestartDistance,0
;   extruderRetractionZLift,0
;   extruderRetractionSpeed,2500
;   extruderUseCoasting,0
;   extruderCoastingDistance,0.2
;   extruderUseWipe,0
;   extruderWipeDistance,5
;   primaryExtruder,0
;   layerHeight,0.2
;   topSolidLayers,3
;   bottomSolidLayers,3
;   perimeterOutlines,3
;   printPerimetersInsideOut,1
;   startPointOption,2
;   startPointOriginX,0
;   startPointOriginY,0
;   sequentialIslands,0
;   spiralVaseMode,0
;   firstLayerHeightPercentage,100
;   firstLayerWidthPercentage,100
;   firstLayerUnderspeed,0.5
;   useRaft,0
;   raftExtruder,0
;   raftTopLayers,3
;   raftBaseLayers,2
;   raftOffset,3
;   raftSeparationDistance,0.14
;   raftTopInfill,100
;   aboveRaftSpeedMultiplier,0.3
;   useSkirt,1
;   skirtExtruder,0
;   skirtLayers,1
;   skirtOutlines,2
;   skirtOffset,4
;   usePrimePillar,0
;   primePillarExtruder,999
;   primePillarWidth,12
;   primePillarLocation,7
;   primePillarSpeedMultiplier,1
;   useOozeShield,0
;   oozeShieldExtruder,999
;   oozeShieldOffset,2
;   oozeShieldOutlines,1
;   oozeShieldSidewallShape,1
;   oozeShieldSidewallAngle,30
;   oozeShieldSpeedMultiplier,1
;   infillExtruder,0
;   internalInfillPattern,Rectilinear
;   externalInfillPattern,Rectilinear
;   infillPercentage,15
;   outlineOverlapPercentage,15
;   infillExtrusionWidthPercentage,100
;   minInfillLength,5
;   infillLayerInterval,1
;   internalInfillAngles,45,-45
;   overlapInternalInfillAngles,0
;   externalInfillAngles,45,-45
;   generateSupport,0
;   supportExtruder,0
;   supportInfillPercentage,30
;   supportExtraInflation,0
;   supportBaseLayers,0
;   denseSupportExtruder,0
;   denseSupportLayers,0
;   denseSupportInfillPercentage,70
;   supportLayerInterval,1
;   supportHorizontalPartOffset,0.3
;   supportUpperSeparationLayers,1
;   supportLowerSeparationLayers,1
;   supportType,0
;   supportGridSpacing,4
;   maxOverhangAngle,45
;   supportAngles,0
;   temperatureName,Extruder 1,Heated Bed
;   temperatureNumber,0,0
;   temperatureSetpointCount,1,1
;   temperatureSetpointLayers,1,1
;   temperatureSetpointTemperatures,215,60
;   temperatureStabilizeAtStartup,1,1
;   temperatureHeatedBed,0,1
;   fanLayers,1,2
;   fanSpeeds,0,100
;   blipFanToFullPower,0
;   adjustSpeedForCooling,1
;   minSpeedLayerTime,15
;   minCoolingSpeedSlowdown,20
;   increaseFanForCooling,0
;   minFanLayerTime,45
;   maxCoolingFanSpeed,100
;   increaseFanForBridging,0
;   bridgingFanSpeed,100
;   use5D,1
;   relativeEdistances,0
;   allowEaxisZeroing,1
;   independentExtruderAxes,0
;   includeM10123,0
;   stickySupport,1
;   applyToolheadOffsets,0
;   gcodeXoffset,0
;   gcodeYoffset,0
;   gcodeZoffset,0
;   overrideMachineDefinition,1
;   machineTypeOverride,0
;   strokeXoverride,300
;   strokeYoverride,300
;   strokeZoverride,300
;   originOffsetXoverride,0
;   originOffsetYoverride,0
;   originOffsetZoverride,0
;   homeXdirOverride,-1
;   homeYdirOverride,-1
;   homeZdirOverride,-1
;   flipXoverride,1
;   flipYoverride,-1
;   flipZoverride,1
;   toolheadOffsets,0,0|0,0|0,0|0,0|0,0|0,0
;   overrideFirmwareConfiguration,1
;   firmwareTypeOverride,RepRap (Marlin/Repetier/Sprinter)
;   GPXconfigOverride,r2
;   baudRateOverride,115200
;   overridePrinterModels,0
;   printerModelsOverride
;   startingGcode,
;   layerChangeGcode,
;   retractionGcode,
;   toolChangeGcode,
;   endingGcode,M0
;   exportFileFormat,gcode
;   celebration,0
;   celebrationSong,Random Song
;   postProcessing,
;   defaultSpeed,4500
;   outlineUnderspeed,0.4
;   solidInfillUnderspeed,0.6
;   supportUnderspeed,0.8
;   rapidXYspeed,4800
;   rapidZspeed,1000
;   minBridgingArea,50
;   bridgingExtraInflation,0
;   bridgingExtrusionMultiplier,1
;   bridgingSpeedMultiplier,1
;   useFixedBridgingAngle,0
;   fixedBridgingAngle,0
;   applyBridgingToPerimeters,0
;   filamentDiameters,1.75|1.75|1.75|1.75|1.75|1.75
;   filamentPricesPerKg,46|46|46|46|46|46
;   filamentDensities,1.25|1.25|1.25|1.25|1.25|1.25
;   useMinPrintHeight,0
;   minPrintHeight,0
;   useMaxPrintHeight,0
;   maxPrintHeight,0
;   useDiaphragm,0
;   diaphragmLayerInterval,20
;   robustSlicing,1
;   mergeAllIntoSolid,0
;   onlyRetractWhenCrossingOutline,1
;   retractBetweenLayers,1
;   useRetractionMinTravel,1
;   retractionMinTravel,3
;   retractWhileWiping,0
;   onlyWipeOutlines,1
;   avoidCrossingOutline,0
;   maxMovementDetourFactor,3
;   toolChangeRetractionDistance,12
;   toolChangeExtraRestartDistance,-0.5
;   toolChangeRetractionSpeed,600
;   externalThinWallType,0
;   internalThinWallType,2
;   thinWallAllowedOverlapPercentage,10
;   singleExtrusionMinLength,1
;   singleExtrusionMinPrintingWidthPercentage,50
;   singleExtrusionMaxPrintingWidthPercentage,200
;   singleExtrusionEndpointExtension,0.2
;   horizontalSizeCompensation,0
G90
M82
M106 S0
M140 S60
M190 S60
M104 S215 T0
M109 S215 T0
; process Process1
; layer 1, Z = 0.200
T0
G92 E0.0000
G1 E-0.7500 F2500
; feature skirt
; tool H0.200 W0.480
G1 Z0.200 F1000
G1 X100.920 Y50.730 F4800
G1 E0.0000 F2500
G92 E0.0000
G1 X103.685 Y47.965 E0.1561 F2250
G1 X151.955 Y47.965 E2.0826
G1 X154.720 Y50.730 E2.2387
G1 X154.720 Y181.770 E7.4688
G1 X151.955 Y184.535 E7.6249
G1 X132.720 Y184.535 E8.3926
G1 X132.720 Y220.095 E9.8118
G1 X151.955 Y220.095 E10.5796
G1 X154.720 Y222.860 E10.7356
G1 X154.720 Y249.270 E11.7897
G1 X151.955 Y252.035 E11.9458
G1 X118.045 Y252.035 E13.2992
G1 X115.280 Y249.270 E13.4553
G1 X115.280 Y162.035 E16.9370
G1 X103.685 Y162.035 E17.3998
G1 X100.920 Y159.270 E17.5559
G1 X100.920 Y50.730 E21.8879
G1 X101.400 Y50.929 F4800
G92 E0.0000
G1 X103.884 Y48.445 E0.1402 F2250
G1 X151.756 Y48.445 E2.0509
G1 X154.240 Y50.929 E2.1911
G1 X154.240 Y181.571 E7.4053
G1 X151.756 Y184.055 E7.5455
G1 X132.240 Y184.055 E8.3244
G1 X132.240 Y220.575 E9.7820
G1 X151.756 Y220.575 E10.5610
G1 X154.240 Y223.059 E10.7012
G1 X154.240 Y249.071 E11.7394
G1 X151.756 Y251.555 E11.8796
G1 X118.244 Y251.555 E13.2171
G1 X115.760 Y249.071 E13.3573
G1 X115.760 Y161.555 E16.8503
G1 X103.884 Y161.555 E17.3243
G1 X101.400 Y159.071 E17.4645
G1 X101.400 Y50.929 E21.7807
G92 E0.0000
G1 E-0.7500 F2500
; feature inner perimeter
G1 X121.200 Y156.515 F4800
G1 E0.0000 F2500
G92 E0.0000
G1 X148.800 Y156.515 E1.1016 F1575
G1 X148.800 Y178.615 E1.9836
G1 X126.800 Y178.615 E2.8617
G1 X126.800 Y226.015 E4.7535
G1 X148.800 Y226.015 E5.6316
G1 X148.800 Y246.115 E6.4338
G1 X121.200 Y246.115 E7.5354
G1 X121.200 Y156.515 E11.1115
G1 X120.720 Y156.595 F4800
G92 E0.0000
G1 X106.360 Y156.595 E0.5731 F1575
G1 X106.360 Y53.405 E4.6917
G1 X149.280 Y53.405 E6.4047
G1 X149.280 Y179.095 E11.4213
G1 X127.280 Y179.095 E12.2993
G1 X127.280 Y225.535 E14.1529
G1 X149.280 Y225.535 E15.0309
G1 X149.280 Y246.595 E15.8715
G1 X120.720 Y246.595 E17.0114
G1 X120.720 Y156.595 E20.6035
; feature outer perimeter
G1 X120.240 Y157.075 F4800
G92 E0.0000
G1 X105.880 Y157.075 E0.5731 F900
G1 X105.880 Y52.925 E4.7300
G1 X149.760 Y52.925 E6.4813
G1 X149.760 Y179.575 E11.5362
G1 X127.760 Y179.575 E12.4143
G1 X127.760 Y225.055 E14.2295
G1 X149.760 Y225.055 E15.1076
G1 X149.760 Y247.075 E15.9864
G1 X120.240 Y247.075 E17.1646
G1 X120.240 Y157.075 E20.7567
; feature inner perimeter
G1 X106.920 Y156.035 F4800
G92 E0.0000
G1 X148.720 Y156.035 E1.6683 F1575
G1 X148.720 Y53.965 E5.7422
G1 X106.920 Y53.965 E7.4105
G1 X106.920 Y156.035 E11.4843
; feature outer perimeter
G1 X107.400 Y155.555 F4800
G92 E0.0000
G1 X148.240 Y155.555 E1.6300 F900
G1 X148.240 Y54.445 E5.6655
G1 X107.400 Y54.445 E7.2955
G1 X107.400 Y155.555 E11.3311
; feature solid layer
G1 X148.319 Y156.923 F4800
G92 E0.0000
G1 X148.392 Y156.996 E0.0041 F1350
G1 X148.392 Y157.674 E0.0312
G1 X147.641 Y156.923 E0.0736
G1 X146.962 Y156.923 E0.1007
G1 X148.392 Y158.353 E0.1814
G1 X148.392 Y159.032 E0.2085
G1 X146.283 Y156.923 E0.3276
G1 X145.604 Y156.923 E0.3546
G1 X148.392 Y159.711 E0.5120
G1 X148.392 Y160.390 E0.5391
G1 X144.925 Y156.923 E0.7348
G1 X144.247 Y156.923 E0.7619
G1 X148.392 Y161.068 E0.9958
G1 X148.392 Y161.747 E1.0229
G1 X143.568 Y156.923 E1.2952
G1 X142.889 Y156.923 E1.3223
G1 X148.392 Y162.426 E1.6330
G1 X148.392 Y163.105 E1.6601
G1 X142.210 Y156.923 E2.0090
G1 X141.531 Y156.923 E2.0361
G1 X148.392 Y163.784 E2.4233
G1 X148.392 Y164.463 E2.4504
G1 X140.852 Y156.923 E2.8760
G1 X140.174 Y156.923 E2.9031
G1 X148.392 Y165.141 E3.3670
G1 X148.392 Y165.820 E3.3941
G1 X139.495 Y156.923 E3.8963
G1 X138.816 Y156.923 E3.9234
G1 X148.392 Y166.499 E4.4639
G1 X148.392 Y167.178 E4.4910
G1 X138.137 Y156.923 E5.0698
G1 X137.458 Y156.923 E5.0969
G1 X148.392 Y167.857 E5.7140
G1 X148.392 Y168.536 E5.7411
G1 X136.779 Y156.923 E6.3966
G1 X136.101 Y156.923 E6.4237
G1 X148.392 Y169.214 E7.1175
G1 X148.392 Y169.893 E7.1445
G1 X135.422 Y156.923 E7.8766
G1 X134.743 Y156.923 E7.9037
G1 X148.392 Y170.572 E8.6741
G1 X148.392 Y171.251 E8.7012
G1 X134.064 Y156.923 E9.5100
G1 X133.385 Y156.923 E9.5370
G1 X148.392 Y171.930 E10.3841
G1 X148.392 Y172.608 E10.4112
G1 X132.707 Y156.923 E11.2965
G1 X132.028 Y156.923 E11.3236
G1 X148.392 Y173.287 E12.2473
G1 X148.392 Y173.966 E12.2744
G1 X131.349 Y156.923 E13.2364
G1 X130.670 Y156.923 E13.2635
G1 X148.392 Y174.645 E14.2638
G1 X148.392 Y175.324 E14.2909
G1 X129.991 Y156.923 E15.3295
G1 X129.312 Y156.923 E15.3566
G1 X148.392 Y176.003 E16.4335
G1 X148.392 Y176.681 E16.4606
G1 X128.634 Y156.923 E17.5759
G1 X127.955 Y156.923 E17.6029
G1 X148.392 Y177.360 E18.7565
G1 X148.392 Y178.039 E18.7836
G1 X127.276 Y156.923 E19.9755
G1 X126.597 Y156.923 E20.0026
G1 X147.881 Y178.207 E21.2039
G1 X147.202 Y178.207 E21.2310
G1 X125.918 Y156.923 E22.4324
G1 X125.239 Y156.923 E22.4595
G1 X146.523 Y178.207 E23.6608
G1 X145.845 Y178.207 E23.6879
G1 X124.561 Y156.923 E24.8893
G1 X123.882 Y156.923 E24.9164
G1 X145.166 Y178.207 E26.1178
G1 X144.487 Y178.207 E26.1448
G1 X123.203 Y156.923 E27.3462
G1 X122.524 Y156.923 E27.3733
G1 X143.808 Y178.207 E28.5747
G1 X143.129 Y178.207 E28.6018
G1 X121.845 Y156.923 E29.8031
G1 X121.608 Y156.923 E29.8126
G1 X121.608 Y157.364 E29.8302
G1 X142.451 Y178.207 E31.0067
G1 X141.772 Y178.207 E31.0338
G1 X121.608 Y158.043 E32.1719
G1 X121.608 Y158.722 E32.1990
G1 X141.093 Y178.207 E33.2988
G1 X140.414 Y178.207 E33.3259
G1 X121.608 Y159.401 E34.3874
G1 X121.608 Y160.080 E34.4145
G1 X139.735 Y178.207 E35.4377
G1 X139.056 Y178.207 E35.4647
G1 X121.608 Y160.759 E36.4496
G1 X121.608 Y161.437 E36.4767
G1 X138.378 Y178.207 E37.4233
G1 X137.699 Y178.207 E37.4503
G1 X121.608 Y162.116 E38.3586
G1 X121.608 Y162.795 E38.3857
G1 X137.020 Y178.207 E39.2556
G1 X136.341 Y178.207 E39.2827
G1 X121.608 Y163.474 E40.1143
G1 X121.608 Y164.153 E40.1414
G1 X135.662 Y178.207 E40.9347
G1 X134.984 Y178.207 E40.9618
G1 X121.608 Y164.831 E41.7167
G1 X121.608 Y165.510 E41.7438
G1 X134.305 Y178.207 E42.4605
G1 X133.626 Y178.207 E42.4876
G1 X121.608 Y166.189 E43.1659
G1 X121.608 Y166.868 E43.1930
G1 X132.947 Y178.207 E43.8330
G1 X132.268 Y178.207 E43.8601
G1 X121.608 Y167.547 E44.4618
G1 X121.608 Y168.226 E44.4889
G1 X131.589 Y178.207 E45.0523
G1 X130.911 Y178.207 E45.0794
G1 X121.608 Y168.904 E45.6045
G1 X121.608 Y169.583 E45.6316
G1 X130.232 Y178.207 E46.1184
G1 X129.553 Y178.207 E46.1454
G1 X121.608 Y170.262 E46.5939
G1 X121.608 Y170.941 E46.6210
G1 X128.874 Y178.207 E47.0311
G1 X128.195 Y178.207 E47.0582
G1 X121.608 Y171.620 E47.4300
G1 X121.608 Y172.299 E47.4571
G1 X127.516 Y178.207 E47.7906
G1 X126.838 Y178.207 E47.8177
G1 X121.608 Y172.977 E48.1129
G1 X121.608 Y173.656 E48.1400
G1 X126.392 Y178.440 E48.4100
G1 X126.392 Y179.119 E48.4371
G1 X121.608 Y174.335 E48.7071
G1 X121.608 Y175.014 E48.7342
G1 X126.392 Y179.798 E49.0043
G1 X126.392 Y180.477 E49.0314
G1 X121.608 Y175.693 E49.3014
G1 X121.608 Y176.371 E49.3285
G1 X126.392 Y181.155 E49.5985
G1 X126.392 Y181.834 E49.6256
G1 X121.608 Y177.050 E49.8956
G1 X121.608 Y177.729 E49.9227
G1 X126.392 Y182.513 E50.1928
G1 X126.392 Y183.192 E50.2198
G1 X121.608 Y178.408 E50.4899
G1 X121.608 Y179.087 E50.5170
G1 X126.392 Y183.871 E50.7870
G1 X126.392 Y184.550 E50.8141
G1 X121.608 Y179.766 E51.0841
G1 X121.608 Y180.444 E51.1112
G1 X126.392 Y185.228 E51.3812
G1 X126.392 Y185.907 E51.4083
G1 X121.608 Y181.123 E51.6784
G1 X121.608 Y181.802 E51.7055
G1 X126.392 Y186.586 E51.9755
G1 X126.392 Y187.265 E52.0026
G1 X121.608 Y182.481 E52.2726
G1 X121.608 Y183.160 E52.2997
G1 X126.392 Y187.944 E52.5697
G1 X126.392 Y188.623 E52.5968
G1 X121.608 Y183.839 E52.8669
G1 X121.608 Y184.517 E52.8940
G1 X126.392 Y189.301 E53.1640
G1 X126.392 Y189.980 E53.1911
G1 X121.608 Y185.196 E53.4611
G1 X121.608 Y185.875 E53.4882
G1 X126.392 Y190.659 E53.7582
G1 X126.392 Y191.338 E53.7853
G1 X121.608 Y186.554 E54.0554
G1 X121.608 Y187.233 E54.0824
G1 X126.392 Y192.017 E54.3525
G1 X126.392 Y192.695 E54.3796
G1 X121.608 Y187.911 E54.6496
G1 X121.608 Y188.590 E54.6767
G1 X126.392 Y193.374 E54.9467
G1 X126.392 Y194.053 E54.9738
G1 X121.608 Y189.269 E55.2438
G1 X121.608 Y189.948 E55.2709
G1 X126.392 Y194.732 E55.5410
G1 X126.392 Y195.411 E55.5681
G1 X121.608 Y190.627 E55.8381
G1 X121.608 Y191.306 E55.8652
G1 X126.392 Y196.090 E56.1352
G1 X126.392 Y196.768 E56.1623
G1 X121.608 Y191.984 E56.4323
G1 X121.608 Y192.663 E56.4594
G1 X126.392 Y197.447 E56.7295
G1 X126.392 Y198.126 E56.7566
G1 X121.608 Y193.342 E57.0266
G1 X121.608 Y194.021 E57.0537
G1 X126.392 Y198.805 E57.3237
G1 X126.392 Y199.484 E57.3508
G1 X121.608 Y194.700 E57.6208
G1 X121.608 Y195.378 E57.6479
G1 X126.392 Y200.162 E57.9179
G1 X126.392 Y200.841 E57.9450
G1 X121.608 Y196.057 E58.2151
G1 X121.608 Y196.736 E58.2422
G1 X126.392 Y201.520 E58.5122
G1 X126.392 Y202.199 E58.5393
G1 X121.608 Y197.415 E58.8093
G1 X121.608 Y198.094 E58.8364
G1 X126.392 Y202.878 E59.1064
G1 X126.392 Y203.557 E59.1335
G1 X121.608 Y198.773 E59.4036
G1 X121.608 Y199.451 E59.4307
G1 X126.392 Y204.235 E59.7007
G1 X126.392 Y204.914 E59.7278
G1 X121.608 Y200.130 E59.9978
G1 X121.608 Y200.809 E60.0249
G1 X126.392 Y205.593 E60.2949
G1 X126.392 Y206.272 E60.3220
G1 X121.608 Y201.488 E60.5921
G1 X121.608 Y202.167 E60.6191
G1 X126.392 Y206.951 E60.8892
G1 X126.392 Y207.630 E60.9163
G1 X121.608 Y202.846 E61.1863
G1 X121.608 Y203.524 E61.2134
G1 X126.392 Y208.308 E61.4834
G1 X126.392 Y208.987 E61.5105
G1 X121.608 Y204.203 E61.7805
G1 X121.608 Y204.882 E61.8076
G1 X126.392 Y209.666 E62.0777
G1 X126.392 Y210.345 E62.1048
G1 X121.608 Y205.561 E62.3748
G1 X121.608 Y206.240 E62.4019
G1 X126.392 Y211.024 E62.6719
G1 X126.392 Y211.702 E62.6990
G1 X121.608 Y206.918 E62.9690
G1 X121.608 Y207.597 E62.9961
G1 X126.392 Y212.381 E63.2662
G1 X126.392 Y213.060 E63.2933
G1 X121.608 Y208.276 E63.5633
G1 X121.608 Y208.955 E63.5904
G1 X126.392 Y213.739 E63.8604
G1 X126.392 Y214.418 E63.8875
G1 X121.608 Y209.634 E64.1575
G1 X121.608 Y210.313 E64.1846
G1 X126.392 Y215.097 E64.4547
G1 X126.392 Y215.775 E64.4817
G1 X121.608 Y210.991 E64.7518
G1 X121.608 Y211.670 E64.7789
G1 X126.392 Y216.454 E65.0489
G1 X126.392 Y217.133 E65.0760
G1 X121.608 Y212.349 E65.3460
G1 X121.608 Y213.028 E65.3731
G1 X126.392 Y217.812 E65.6431
G1 X126.392 Y218.491 E65.6702
G1 X121.608 Y213.707 E65.9403
G1 X121.608 Y214.386 E65.9674
G1 X126.392 Y219.170 E66.2374
G1 X126.392 Y219.848 E66.2645
G1 X121.608 Y215.064 E66.5345
G1 X121.608 Y215.743 E66.5616
G1 X126.392 Y220.527 E66.8316
G1 X126.392 Y221.206 E66.8587
G1 X121.608 Y216.422 E67.1288
G1 X121.608 Y217.101 E67.1559
G1 X126.392 Y221.885 E67.4259
G1 X126.392 Y222.564 E67.4530
G1 X121.608 Y217.780 E67.7230
G1 X121.608 Y218.458 E67.7501
G1 X126.392 Y223.242 E68.0201
G1 X126.392 Y223.921 E68.0472
G1 X121.608 Y219.137 E68.3173
G1 X121.608 Y219.816 E68.3443
